!!!COM: Bach, Johann Sebastian
!!!OTL: Alle Menschen muessen sterben
!!!ONM: No. 153
!!!OCL: Erk
!!!YOE: Riemenschneider, Albert
!!!OPR: 371 Harmonized Chorales and 69 Chorale Melodies with Figured Bass
!!!OPT: Bach Chorale Harmonizations
**kern	**kern	**kern	**kern
! bass	! tenor	! alto	! soprano
*M4/4	*M4/4	*M4/4	*M4/4
*D:	*D:	*D:	*D:
=1	=1	=1	=1
4D	4F#	4d	4a
4BB	8F#	4d	4dd
.	8G	.	.
4FF#	4A	4d	4a
4GG	8G	4d	4b
.	8F#	.	.
=2	=2	=2	=2
4AA	8E	4d	4.a
.	8D	.	.
4AA	4E	4c#	.
.	.	.	8g
4DD	4D	4d	4f#
4DD;	4D;	4d;	4f#;
=3	=3	=3	=3
4D	4F#	4d	4a
4D	4F#	8d	4a
.	.	8c#	.
4E	4G	8B	4g
.	.	8c#	.
4F#	4A	[4d	4f#
=4	=4	=4	=4
8G	4B	4d]	4.e
8E	.	.	.
8A	8.A	4c#	.
8A	.	.	8d
.	16G	.	.
2D;	2F#;	2d;	2d;
!! Repeat from the beginning.
=1	=1	=1	=1
4D	4F#	4d	4a
4BB	8F#	4d	4dd
.	8G	.	.
4FF#	4A	4d	4a
4GG	8G	4d	4b
.	8F#	.	.
=2	=2	=2	=2
4AA	8E	4d	4.a
.	8D	.	.
4AA	4E	4c#	.
.	.	.	8g
4DD	4D	4d	4f#
4DD;	4D;	4d;	4f#;
=3	=3	=3	=3
4D	4F#	4d	4a
4D	4F#	8d	4a
.	.	8c#	.
4E	4G	8B	4g
.	.	8c#	.
4F#	4A	[4d	4f#
=4	=4	=4	=4
8G	4B	4d]	4.e
8E	.	.	.
8A	8.A	4c#	.
8A	.	.	8d
.	16G	.	.
2D;	2F#;	2d;	2d;
!! Continuing.
=5	=5	=5	=5
4AA	4A	4c#	4e
4AA	4A	4c#	4e
4D	4A	4d	8f#
.	.	.	8g#
8F#	4A	4c#	4a
8E	.	.	.
=6	=6	=6	=6
4D	4B	4f#	[4a
4E	4B	8e	8a]
.	.	8d	8g#
2AA;	4A	4c#	4a
.	4A;	4c#;	4a;
=7	=7	=7	=7
2E	4.G	8e	4.b
.	.	8f#	.
.	.	4g	.
.	8A	.	8cc#
8BB	[2B	4f#	4dd
8C#	.	.	.
8D	.	4f#	4dd
8E	.	.	.
=8	=8	=8	=8
2F#	4B]	4.f#	4.cc#
.	4A#	.	.
.	.	8e	8cc#
2BB;	2B;	4d	4b
.	.	4d;	4b;
=9	=9	=9	=9
4D	4A	4d	4f#
4D	4A	4d	4F#
4GG	8G	4d	4b
.	8F#	.	.
4AA	4E	4c#	4a
=10	=10	=10	=10
2BB	8D	4d	4a
.	8F#	.	.
.	8E	4d	4g#
.	8D	.	.
2AA;	2E;	2c#;	2a;
=11	=11	=11	=11
4GG	4G	4d	4b
4D	4F#	8d	4a
.	.	8c#	.
4E	4G	8B	4g
.	.	8c#	.
4F#	4A	4d	4f#
=12	=12	=12	=12
8G	4B	4d	4.e
8E	.	.	.
8A	8.A	4c#	.
8AA	.	.	8d
.	16G	.	.
2D;	2F#;	2d;	2d;
==	==	==	==
*-	*-	*-	*-
!!!CDT: 1685/3//-1750/7/28
!!!OCY: Deutschland
!!!AGN: chorale
!!!AST: Baroque
!!!AIN: vox
!!!YOY: 1941
!!!PPP: New York; London
!!!PPR: G. Schirmer
!!!ENC: David Huron
!!!EED: David Huron
!!!YEN: United States of America
!!!YER: 1992
!!!YEC: Copyright 1992 David Huron
!!!YEM: Rights to all derivative electronic formats reserved.
!!!YER: March 20, 1996
!!!AMT: simple quadruple
!!!EEV: 1.1
